**kern
*clefG2
*k[]
*M4/4
=1-
16g
8f 8d
2f
8e 8c#
8.d
=2
1d
=3
4c
16B
4B
16A
16A
16B
4B
=4
8A
16A#
4B
16B#
8c
8d
8d
8e 8c
=5
(16f
16f-)
2e
8fn
16g
16a 16f 16d
16a
(16a
=6
4g#)
2a
(16a
16a)
16gn
(16a
=7
2g)
8a 8f 8d
(4g
8f
=8
16e)
16e
16e
4e
8f
16g
16a
(16b
8a-)
16g
16g
=9
2f
8g
16a
8a
8a
16g
=10
8.g
4f
16f
8f
4e
16e
16d
=11
*-